X:87
T:Rondeau de Gascogne
R:rondeau
C:trad.
A:Gascogne
O:France
Z:S. Piron
M:6/8
L:1/8
Q:1/4=190
K:C
c2gf2e|defg2g|c2gf2e|defg3:|
|:cBcd2d|g2gf2d|gagf2e|1defg2g:|2dedc3||
